!!!!SEGMENT: pl-kk--kk-i-15--001_anonim--grates-nunc-omnes-reddamus.krn
!!!cenid: 16xx:1118
!!!COM: Anonim
!!!COM-rismID: pe30004985
!!!CDT:
!!!CNT:
!!!OTL: Grates nunc omnes reddamus
!!!PDT:
!!!AGN: Sacred
!!!YEC: Copyright 2022 Narodowy Instytut Fryderyka Chopina (https://polishscores.org)
!!!YEM: License CC-BY-4.0 (https://creativecommons.org/licenses/by/4.0)
!!!SMS-siglum: PL-Kk
!!!SMS-shelfmark: Kk.I.15
!!!SMS-shelfwork: 001 W
!!!SMS-variant:
!!!SMS-altvar:
!!!NIFC-rismSourceID: 1001146379
!!!NIFC-rismChildID: 1001146422
!!!NIFC-islandoraID: pl-kk:2631
!!!URL-pdf-islandora: https://repozytorium.nifc.pl/islandora/object/pl-kk%3A2631/datastream/PDF/view
!!!URL-scan: https://polish.musicsources.pl/pl/lokalizacje/galeria/rekopisy/5777 @EN{Scan on Polish Music Sources Website} @PL{Skany w portalu Dziedzictwo Muzyki Polskiej w otwartym dostępie}
!!!IIIF:
!!!ONB-nifc: UWAGA: C (skan 0002), A (skan 0020), T (skan 0037), B (skan 0055). Następny motet: O admirabile commercium
!!!AIN: 1 alto 1 empty 1 tenor 1 vox
!!!key:
**kern	**text	**kern	**text	**kern	**text	**kern	**text
*part4	*	*part3	*	*part2	*	*part1	*
*staff4	*	*staff3	*	*staff2	*	*staff1	*
*Iempty	*	*Itenor	*	*Ialto	*	*Ivox	*
*I"Baſso	*	*I"Tenore.	*	*I"Alto	*	*I"Canto.	*
*I'B	*	*I'T	*	*I'A	*	*I'S	*
*clefF4	*	*clefC4	*	*clefC1	*	*clefC3	*
*k[]	*	*k[]	*	*k[]	*	*k[]	*
*C:	*	*C:	*	*C:	*	*C:	*
*M2/1	*	*M2/1	*	*M2/1	*	*M2/1	*
*met(C|)	*	*met(C|)	*	*met(C|)	*	*met(C|)	*
=1-	=1-	=1-	=1-	=1-	=1-	=1-	=1-
1F	Gra-	1F	Gra-	00r	.	1A	Gra-
!	!	!LO:TX:t=P:problem=kreska pseudotaktowa	!	!	!	!LO:TX:t=P:problem=kreska pseudotaktowa	!
4E\	.	1G	-tes	.	.	1B	-tes
4D\	.	.	.	.	.	.	.
4C/	.	.	.	.	.	.	.
!LO:TX:t=P:problem=kreska pseudotaktowa	!	!	!	!	!	!	!
4BB/	.	.	.	.	.	.	.
=2-	=2-	=2-	=2-	=2-	=2-	=2-	=2-
!	!	!LO:TX:t=P:problem=kreska pseudotaktowa	!	!	!	!	!
2AA/	-tes	1A	nunc	.	.	2c/	nunc
2.D\	nunc	.	.	.	.	2.d\	o-
.	.	1A	o-	.	.	.	.
4E\	.	.	.	.	.	4B/	.
!LO:TX:t=P:problem=kreska pseudotaktowa	!	!	!	!	!	!	!
2F\	o-	.	.	.	.	1d\	.
=3-	=3-	=3-	=3-	=3-	=3-	=3-	=3-
!	!	!LO:TX:t=P:problem=kreska pseudotaktowa	!	!LO:TX:t=P:problem=kreska pseudotaktowa	!	!	!
1E	.	1G	-mnes	1r	.	.	.
!	!	!	!	!	!	!LO:TX:t=P:problem=kreska pseudotaktowa	!
.	.	.	.	.	.	2c/	.
1D	.	1A	red-	1f	Gra-	1d	-mnes
=4-	=4-	=4-	=4-	=4-	=4-	=4-	=4-
!LO:TX:t=P:problem=kreska pseudotaktowa	!	!	!	!LO:TX:t=P:problem=kreska pseudotaktowa	!	!	!
1C	-mnes	1c	-da-	1g	-tes	2.e\	red-
!	!	!	!	!	!	!LO:TX:t=P:problem=kreska pseudotaktowa	!
.	.	.	.	.	.	4d\	.
!	!	!LO:TX:t=P:problem=kreska pseudotaktowa	!	!LO:TX:t=P:problem=kreska pseudotaktowa	!	!	!
2r	.	1c	-m(us)	1a	nunc	2e\	.
2.F\	red-	.	.	.	.	1f\	-da-
=5-	=5-	=5-	=5-	=5-	=5-	=5-	=5-
.	.	1A	Do-	1a	o-	.	.
4E\	.	.	.	.	.	.	.
!LO:TX:t=P:problem=kreska pseudotaktowa	!	!	!	!	!	!	!
2F\	-da-	.	.	.	.	4e\	.
!	!	!	!	!	!	!LO:TX:t=P:problem=kreska pseudotaktowa	!
.	.	.	.	.	.	4d\	.
!	!	!	!	!LO:TX:t=P:problem=kreska pseudotaktowa	!	!	!
1C	-m(us)	1c	-mi-	1g	-mnes	1e	.
=6-	=6-	=6-	=6-	=6-	=6-	=6-	=6-
!	!	!LO:TX:t=P:problem=kreska pseudotaktowa	!	!	!	!LO:TX:t=P:problem=kreska pseudotaktowa	!
2.F\	Do-	1c	-no	1a	red-	1f	-m(us)
!LO:TX:t=P:problem=kreska pseudotaktowa	!	!	!	!	!	!	!
4E\	-mi-	.	.	.	.	.	.
4F\	-no	1c	De-	1cc	-da-	2rf	.
4G\	.	.	.	.	.	.	.
2.A\	De-	.	.	.	.	2f\	Do-
=7-	=7-	=7-	=7-	=7-	=7-	=7-	=7-
!	!	!LO:TX:t=P:problem=kreska pseudotaktowa	!	!LO:TX:t=P:problem=kreska pseudotaktowa	!	!	!
.	.	1c	-o	1cc	-m(us)	1e	-mi-
4G\	.	.	.	.	.	.	.
4F\	.	.	.	.	.	.	.
4E\	.	.	.	.	.	.	.
!LO:TX:t=P:problem=kreska pseudotaktowa	!	!	!	!	!	!LO:TX:t=P:problem=kreska pseudotaktowa	!
1D	-o	1d	qui	1a	Do-	1f	-no
!LO:LB:g=original	!	!	!	!	!	!	!
=8-	=8-	=8-	=8-	=8-	=8-	=8-	=8-
2r	.	1c	Su-	1cc	-mi-	1g	De-
!LO:TX:t=P:problem=kreska pseudotaktowa	!	!	!	!	!	!	!
2E\	qui	.	.	.	.	.	.
!	!	!	!	!	!	!LO:LB:g=original	!
!	!	!LO:TX:t=P:problem=kreska pseudotaktowa	!	!LO:TX:t=P:problem=kreska pseudotaktowa	!	!	!
2.C/	Su-	1G	-a	1cc	-no	2.e\	-o
!	!	!	!	!	!	!LO:TX:t=P:problem=kreska pseudotaktowa	!
4D\	.	.	.	.	.	4f\	.
=9-	=9-	=9-	=9-	=9-	=9-	=9-	=9-
2E\	-a	1rB	.	1cc	De-	2g\	qui
!LO:TX:t=P::problem=kreska pseudotaktowa&colon;między nutą a kropką, ligatura	!	!	!	!	!	!	!
2.F\	Su-	.	.	.	.	2.a\	Su-
!	!	!	!	!LO:TX:t=P:problem=kreska pseudotaktowa	!	!	!
.	.	1c	Na-	1cc	-o	.	.
4E\	.	.	.	.	.	4g\	.
4D\	.	.	.	.	.	4f\	-a
!	!	!	!	!	!	!LO:TX:t=P:problem=kreska pseudotaktowa	!
4C\	.	.	.	.	.	4e\	.
=10-	=10-	=10-	=10-	=10-	=10-	=10-	=10-
!LO:TX:t=P:problem=kreska pseudotaktowa	!	!	!	!	!	!	!
1G	-a	1B	-ti-	2.ee\	qui	1d	na-
.	.	.	.	4dd\	.	.	.
!	!	!LO:LB:g=original	!	!LO:LB:g=original	!	!LO:TX:t=P:problem=kreska pseudotaktowa	!
2rC	.	1c	-uit-	2cc\	Su-	1e	-ti-
2C/	Na-	.	.	1g/	.	.	.
=11-	=11-	=11-	=11-	=11-	=11-	=11-	=11-
*lig	*	*	*	*	*	*	*
1D	-ti-	1A	-a-	.	.	1d	-ui-
.	.	.	.	2f/	.	.	.
!	!	!LO:TX:t=P:problem=kreska pseudotaktowa	!	!LO:TX:t=P:problem=kreska pseudotaktowa	!	!	!
1E	-ui-	1G	-te	1g	-a	1B	-ta-
*Xlig	*	*	*	*	*	*	*
=12-	=12-	=12-	=12-	=12-	=12-	=12-	=12-
!LO:TX:t=P:problem=kreska pseudotaktowa	!	!LO:TX:t=P:problem=kreska pseudotaktowa	!	!	!	!LO:TX:t=P:problem=kreska pseudotaktowa	!
1F	-ta-	1c	nos	0r	.	1A	-te
2.G\	.	1B	li-	.	.	2G/	na-
.	.	.	.	.	.	1g\	-ti-
4F\	.	.	.	.	.	.	.
=13-	=13-	=13-	=13-	=13-	=13-	=13-	=13-
!	!	!	!	!LO:TX:t=P:problem=kreska pseudotaktowa	!	!	!
2G\	.	1d	-be-	1r	.	.	.
!LO:TX:t=P:problem=kreska pseudotaktowa	!	!	!	!	!	!	!
2E\	.	.	.	.	.	2f\	-ui-
!LO:TX:t=P:problem=kreska pseudotaktowa	!	!	!	!LO:TX:t=P:problem=kreska pseudotaktowa	!	!	!
1A	-te	1c	-ra-	1cc	nos	1e	-ta-
=14-	=14-	=14-	=14-	=14-	=14-	=14-	=14-
!	!	!LO:TX:t=P:problem=kreska pseudotaktowa	!	!	!	!	!
!LO:TX:t=P:problem=kreska pseudotaktowa	!	!LO:TX:t=P:problem=rozdzielacz słów	!	!	!	!LO:TX:t=P:problem=kreska pseudotaktowa	!
1r	.	0G,<	-uit	1b	li-	1d	-te
!LO:TX:t=P:problem=kreska pseudotaktowa	!	!	!	!	!	!	!
1G	nos	.	.	1dd	-be-	2rf	.
.	.	.	.	.	.	1g\	nos
=15-	=15-	=15-	=15-	=15-	=15-	=15-	=15-
1A	li-	1c	de	1cc	-ra-	.	.
!	!	!	!	!	!	!LO:TX:t=P:problem=kreska pseudotaktowa	!
.	.	.	.	.	.	2f\	li-
!	!	!	!	!LO:TX:t=P:problem=kreska pseudotaktowa	!	!	!
1G	-be-	1B	di-	1g	-uit	2g\	-be-
.	.	.	.	.	.	2e\	-ra-
=16-	=16-	=16-	=16-	=16-	=16-	=16-	=16-
!	!	!LO:TX:t=P:problem=kreska pseudotaktowa	!	!	!	!LO:TX:t=P:problem=kreska pseudotaktowa	!
1F	-ra-	1c	-a-	1r	.	0f	.
*custos:G	*	*	*	*	*	*	*
!LO:TX:t=P:problem=kreska pseudotaktowa	!	!	!	!	!	!	!
!	!	!	!	!LO:TX:t=P:problem=kreska pseudotaktowa	!	!	!
1F	-uit	1A	-bo-	1cc	de	.	.
!LO:LB:g=original	!	!	!	!	!	!	!
=17-	=17-	=17-	=17-	=17-	=17-	=17-	=17-
1G	de	1G	-li-	1b	di-	2d/	-uit
.	.	.	.	.	.	2e\	de
!LO:TX:t=P:problem=kreska pseudotaktowa	!	!LO:TX:t=P:problem=kreska pseudotaktowa	!	!LO:TX:t=P:problem=kreska pseudotaktowa	!	!	!
1A	di-	0F	-ca	1cc	-a-	1c	.
!	!	!	!	!	!	!LO:LB:g=original	!
=18-	=18-	=18-	=18-	=18-	=18-	=18-	=18-
*lig	*	*	*	*	*	*	*
1D	-a-	.	.	1a	-bo-	1d	di-
1E	.	1G	po-	1g	-li-	2B/	-a-
!	!	!	!	!	!	!LO:TX:t=P:problem=kreska pseudotaktowa	!
.	.	.	.	.	.	2c/	-bo-
*Xlig	*	*	*	*	*	*	*
=19-	=19-	=19-	=19-	=19-	=19-	=19-	=19-
!	!	!	!	!LO:TX:t=P:problem=kreska pseudotaktowa	!	!	!
0D	-bo-	0A	-te-	0f	-ca	1d	-li-
!	!	!	!	!	!	!LO:TX:t=P:problem=kreska pseudotaktowa	!
.	.	.	.	.	.	1d	-ca
=20-	=20-	=20-	=20-	=20-	=20-	=20-	=20-
1E	-li-	1G	-ſta-	1g	po-	2rf	.
.	.	.	.	.	.	2g\	po-
!LO:TX:t=P:problem=kreska pseudotaktowa	!	!	!	!	!	!	!
0F	-ca	0c	.	0a	-te-	0f	-te-
=21-	=21-	=21-	=21-	=21-	=21-	=21-	=21-
.	.	.	.	.	.	.	.
!	!	!	!	!	!	!LO:TX:t=P:problem=kreska pseudotaktowa	!
1G	pote-	1B	.	0g	-ſta-	1e	-ſta-
=22-	=22-	=22-	=22-	=22-	=22-	=22-	=22-
0D	-sta-	0A	.	.	.	0d	.
.	.	.	.	1f	.	.	.
=23-	=23-	=23-	=23-	=23-	=23-	=23-	=23-
0GGl;;	-te	0Gl;;	-te	0gl;;	-te	0dl;;	-te
!	!	!LO:LB:g=original	!	!LO:LB:g=original	!	!	!
=24||	=24||	=24||	=24||	=24||	=24||	=24||	=24||
*M2/1	*	*M2/1	*	*M2/1	*	*M2/1	*
*met(C|)	*	*met(C|)	*	*met(C|)	*	*met(C|)	*
1D	Hu-	1D	Hu-	1a	Hu-	1d	Hu-
!	!	!LO:TX:t=P:problem=kreska pseudotaktowa	!	!	!	!LO:TX:t=P:problem=kreska pseudotaktowa	!
2E\	-ic	1G	-ic	4a/	-ic	1B	-ic
.	.	.	.	4g/	.	.	.
4D/	o-	.	.	4f/	.	.	.
!LO:TX:t=P:problem=kreska pseudotaktowa	!	!	!	!LO:TX:t=P:problem=kreska pseudotaktowa	!	!	!
4C/	.	.	.	4e/	.	.	.
=25-	=25-	=25-	=25-	=25-	=25-	=25-	=25-
!	!	!	!	!	!	!LO:TX:t=P:problem=kreska pseudotaktowa	!
2BB/	.	1G	o-	2d/	o-	1B	o-
!LO:TX:t=P:problem=kreska pseudotaktowa	!	!	!	!	!	!	!
2AA/	.	.	.	1g	.	.	.
1D	-por-	1A	-por-	.	.	1d	-por-
!	!	!	!	!LO:TX:t=P:problem=kreska pseudotaktowa	!	!	!
.	.	.	.	2f/	-por-	.	.
=26-	=26-	=26-	=26-	=26-	=26-	=26-	=26-
!	!	!LO:TX:t=P:problem=kreska pseudotaktowa	!	!LO:TX:t=P:problem=kreska pseudotaktowa	!	!	!
2GG/	-tet	1G	-tet	1g	-tet	2d\	.
*custos:F	*	*	*	*	*	*	*
1G	ut	.	.	.	.	2B/	.
!	!	!LO:TX:t=P:problem=kreska pseudotaktowa	!	!	!	!LO:TX:t=P:problem=kreska pseudotaktowa	!
.	.	1D	ut	1a	ut	1A	-tet
!LO:LB:g=original	!	!	!	!	!	!	!
!LO:TX:t=P:problem=kreska pseudotaktowa	!	!	!	!	!	!	!
2F\	ca-	.	.	.	.	.	.
!	!	!	!	!	!	!LO:LB:g=original	!
=27-	=27-	=27-	=27-	=27-	=27-	=27-	=27-
!	!	!	!	!LO:TX:t=P:problem=kreska pseudotaktowa	!	!	!
1G	-na-	1G	ca-	1g	ca-	2rB	.
!	!	!	!	!	!	!LO:TX:t=P:problem=kreska pseudotaktowa	!
.	.	.	.	.	.	2.d\	ut
!LO:TX:t=P:problem=kreska pseudotaktowa	!	!	!	!	!	!	!
1D	-m(us)	1A	-na-	1f	-na-	.	.
.	.	.	.	.	.	4c\	.
!	!	!	!	!	!	!LO:TX:t=P:problem=kreska pseudotaktowa	!
.	.	.	.	.	.	2d\	ca-
=28-	=28-	=28-	=28-	=28-	=28-	=28-	=28-
!	!	!LO:TX:t=P:problem=kreska pseudotaktowa	!	!LO:TX:t=P:problem=kreska pseudotaktowa	!	!	!
1C	.	1c	-mus	1e	-m(us)	2.G/	-na-
!	!	!	!	!	!	!LO:TX:t=P:problem=kreska pseudotaktowa	!
.	.	.	.	.	.	4A/	.
2G\	cum	1G	cu(m)	2d/	cum	2B/	-m(us)
!LO:TX:t=P:problem=kreska pseudotaktowa	!	!	!	!	!	!	!
2C/	.	.	.	2e/	an-	1e\	cu(m)
=29-	=29-	=29-	=29-	=29-	=29-	=29-	=29-
1D	an-	1F	an-	1f	-ge-	.	.
!	!	!	!	!	!	!LO:TX:t=P:problem=kreska pseudotaktowa	!
.	.	.	.	.	.	2d\	an-
*	*	*	*	*lig	*	*	*
1C	-ge-	(>1E	-ge-	1g	-lis	1e	-ge-
=30-	=30-	=30-	=30-	=30-	=30-	=30-	=30-
!	!	!	!	!	!	!LO:TX:t=P:problem=kreska pseudotaktowa	!
2.c\	-lis	1F)	.	1a	.	1A	-lis
4B\	.	.	.	.	.	.	.
!LO:TX:t=P:problem=kreska pseudotaktowa	!	!	!	!	!	!	!
*	*	*	*	*Xlig	*	*	*
!	!	!LO:TX:t=P:problem=kreska pseudotaktowa	!	!LO:TX:t=P:problem=kreska pseudotaktowa	!	!	!
2A\	Sem-	1D	-lis	1a	.	2rB	.
4G\	.	.	.	.	.	1d\	Sem-
4F\	.	.	.	.	.	.	.
=31-	=31-	=31-	=31-	=31-	=31-	=31-	=31-
!LO:TX:t=P:problem=kreska pseudotaktowa	!	!	!	!	!	!	!
1E	.	1G	Sem-	2r	.	.	.
!	!	!	!	!	!	!LO:TX:t=P:problem=kreska pseudotaktowa	!
.	.	.	.	1g	Se(m)-	2c/	-per
!	!	!LO:TX:t=P:problem=kreska pseudotaktowa	!	!	!	!	!
1D	.	1A	-per	.	.	1d	glo-
!	!	!	!	!LO:TX:t=P:problem=kreska pseudotaktowa	!	!	!
.	.	.	.	2f/	-per	.	.
=32-	=32-	=32-	=32-	=32-	=32-	=32-	=32-
*	*	*	*	*custos:e	*	*	*
!LO:TX:t=P:problem=kreska pseudotaktowa	!	!	!	!	!	!	!
1E	-per	1G	glo-	1g	glo-	1B	-ri-
!	!	!	!	!LO:LB:g=original	!	!LO:TX:t=P:problem=kreska pseudotaktowa	!
2r	.	1c	-ri-	2e/	-ri-	1A	-a
2.F\	glo-	.	.	2.a\	-a	.	.
=33-	=33-	=33-	=33-	=33-	=33-	=33-	=33-
.	.	1A	-a	.	.	2rB	.
4E\	-ri-	.	.	4g\	.	.	.
!LO:TX:t=P:problem=kreska pseudotaktowa	!	!	!	!	!	!	!
2F\	-a	.	.	4f\	.	2A/	in
!	!	!	!	!LO:TX:t=P:problem=kreska pseudotaktowa	!	!	!
.	.	.	.	4e/	.	.	.
!	!	!LO:LB:g=original	!	!	!	!	!
!	!	!LO:TX:t=P:problem=kreska pseudotaktowa	!	!	!	!LO:TX:t=P:problem=kreska pseudotaktowa	!
1G	in	1B-X	in	2d/	.	1d	.
.	.	.	.	1g/	in	.	.
=34-	=34-	=34-	=34-	=34-	=34-	=34-	=34-
!LO:TX:t=P:problem=kreska pseudotaktowa	!	!	!	!	!	!	!
1D	ex-	1A	ex-	.	.	2rB	.
!	!	!	!	!LO:TX:t=P:problem=# above	!	!	!
!	!	!	!	!LO:TX:t=P:problem=kreska pseudotaktowa	!	!	!
.	.	.	.	2f#X/	.	1d	ex-
1E	-cel-	1G	-cel-	1.g	ex-	.	.
.	.	.	.	.	.	2c/	-cel-
=35-	=35-	=35-	=35-	=35-	=35-	=35-	=35-
*	*	*	*	*	*	*lig	*
2.D/	.	0A	.	.	.	0d	-ſis
.	.	.	.	4fny/	-cel-	.	.
4C/	.	.	.	4e/	.	.	.
1D	.	.	.	1f#X	.	.	.
=36-	=36-	=36-	=36-	=36-	=36-	=36-	=36-
0GGl;;	-sis	0Gl;;	-sis	0gl;;	-ſis	0Bl;;	.
*	*	*	*	*	*	*Xlig	*
==	==	==	==	==	==	==	==
*-	*-	*-	*-	*-	*-	*-	*-
!!!system-decoration: [s1,s2,s3,s4]
!!!RDF**kern: > = above
!!!RDF**kern: < = below
!!!RDF**kern: l = terminal long
!!!ENC: Marta Lawrence
!!!END: 2021-03-26
!!!ENC: Kamil Watkowski
!!!END: 2021-03-19
